symbols/web/bookmark/materialsymbolsrounded/bookmark_wght300_20px.svg

<svg xmlns="http://www.w3.org/2000/svg" height="20" width="20"><path d="M5.917 14.812 10 13.083l4.083 1.729V4.5q0-.083-.083-.167-.083-.083-.167-.083H6.167q-.084 0-.167.083-.083.084-.083.167Zm-.209 1.584q-.396.187-.76-.052-.365-.24-.365-.677V4.5q0-.667.459-1.125.458-.458 1.125-.458h7.666q.667 0 1.125.458.459.458.459 1.125v11.167q0 .437-.365.677-.364.239-.76.052L10 14.521ZM5.917 4.25h8.166H10Z"/></svg>

<svg xmlns="http://www.w3.org/2000/svg" height="20" width="20"><path d="M5.917 14.812 10 13.083 14.083 14.812V4.5Q14.083 4.417 14 4.333Q13.917 4.25 13.833 4.25H6.167Q6.083 4.25 6 4.333Q5.917 4.417 5.917 4.5ZM5.708 16.396Q5.312 16.583 4.948 16.344Q4.583 16.104 4.583 15.667V4.5Q4.583 3.833 5.042 3.375Q5.5 2.917 6.167 2.917H13.833Q14.5 2.917 14.958 3.375Q15.417 3.833 15.417 4.5V15.667Q15.417 16.104 15.052 16.344Q14.688 16.583 14.292 16.396L10 14.521ZM5.917 4.25Q5.917 4.25 6 4.25Q6.083 4.25 6.167 4.25H13.833Q13.917 4.25 14 4.25Q14.083 4.25 14.083 4.25H10Z"/></svg>
